X:19021
T:Star of the County Down
T:Unquiet Grave, The
R:Waltz
C:Trad.
O:Ireland
M:3/4
L:1/8
Q:1/4=120
K:Am
EG|"Am"A4 A2|A2"C"G2"Am"A2|c4 c2|"Dm"d2"Am"c2"Dm"d2|"Am"e2"Dm"d2"Am"c2|A4 A2|"C"G6-|G2"Am"c2"G"B2|
"Am"A4 A2|A2"C"G2"Am"A2|c4 c2|"Dm"d2"Am"c2"Dm"d2|"Am"e2"Dm"d2"Am"c2|A4"C"G2|"Am"A6-|A2 e2"F"f2|
"C"g4"Am"e2|e2"Dm"d2"Am"c2|"Dm"d6|d2"Am"c2"Dm"d2|"Am"e2"Dm"d2"Am"c2|A4 A2|"C"G6-|G2"Am"c2"G"B2|
"Am"A4A2|A2"C"G2"Am"A2|c4c2|"Dm"d2"Am"c2"Dm"d2|"Am"e2"Dm"d2"Am"c2|A4"C"G2|"Am"A6-|A4||
